openframe-frontend-core/src/components/icons-v2/brand-logos/adobe-id.svg

<svg width="24" height="24" viewBox="0 0 24 24" fill="none" xmlns="http://www.w3.org/2000/svg">
<path d="M19.875 6C19.875 4.96447 19.0355 4.125 18 4.125H6C4.96447 4.125 4.125 4.96447 4.125 6V18C4.125 19.0355 4.96447 19.875 6 19.875H18C19.0355 19.875 19.875 19.0355 19.875 18V6ZM22.125 18C22.125 20.2782 20.2782 22.125 18 22.125H6C3.72183 22.125 1.875 20.2782 1.875 18V6C1.875 3.72183 3.72183 1.875 6 1.875H18C20.2782 1.875 22.125 3.72183 22.125 6V18Z" fill="#888888"/>
<path d="M10.5005 6.875L10.6147 6.88086C11.1822 6.93835 11.6255 7.41742 11.6255 8C11.6255 8.58258 11.1822 9.06165 10.6147 9.11914L10.5005 9.125H9.62451V14.8745H10.5005L10.6147 14.8804C11.182 14.9378 11.6252 15.4171 11.6255 15.9995C11.6255 16.5821 11.1821 17.0611 10.6147 17.1187L10.5005 17.1245H6.5C5.87868 17.1245 5.375 16.6208 5.375 15.9995C5.37526 15.3784 5.87884 14.8745 6.5 14.8745H7.37451V9.125H6.5C5.87868 9.125 5.375 8.62132 5.375 8C5.375 7.37868 5.87868 6.875 6.5 6.875H10.5005ZM16.3745 8C16.3745 7.37884 16.8784 6.87526 17.4995 6.875C18.1208 6.875 18.6245 7.37868 18.6245 8V15.9995C18.6245 16.6208 18.1208 17.1245 17.4995 17.1245C17.221 17.1244 16.9694 17.0198 16.7729 16.8521C16.3839 17.026 15.9537 17.1245 15.5 17.1245C13.7741 17.1245 12.3755 15.7259 12.3755 14V12.9995C12.3758 11.2738 13.7743 9.875 15.5 9.875C15.8038 9.875 16.0969 9.92015 16.3745 10.001V8ZM14.6255 14C14.6255 14.4832 15.0168 14.8745 15.5 14.8745C15.923 14.8745 16.2755 14.5747 16.3569 14.1758L16.3745 14V12.9995L16.3569 12.8237C16.2753 12.425 15.9228 12.125 15.5 12.125C15.0169 12.125 14.6258 12.5165 14.6255 12.9995V14Z" fill="#888888"/>
</svg>

<svg xmlns="http://www.w3.org/2000/svg" width="24" height="24" fill="none" viewBox="0 0 24 24">
  <path fill="#888" d="M19.875 6c0-1.036-.84-1.875-1.875-1.875H6c-1.036 0-1.875.84-1.875 1.875v12c0 1.035.84 1.875 1.875 1.875h12c1.035 0 1.875-.84 1.875-1.875V6Zm2.25 12A4.125 4.125 0 0 1 18 22.125H6A4.125 4.125 0 0 1 1.875 18V6A4.125 4.125 0 0 1 6 1.875h12A4.125 4.125 0 0 1 22.125 6v12Z"/>
  <path fill="#888" d="m10.5 6.875.115.006a1.125 1.125 0 0 1 0 2.238l-.114.006h-.876v5.75h.876l.114.005a1.126 1.126 0 0 1 0 2.239l-.114.006H6.5a1.125 1.125 0 0 1 0-2.25h.875v-5.75H6.5a1.125 1.125 0 0 1 0-2.25h4ZM16.376 8a1.125 1.125 0 0 1 2.25 0v8c0 .62-.504 1.125-1.125 1.125-.279 0-.53-.105-.727-.273A3.124 3.124 0 0 1 12.376 14v-1a3.125 3.125 0 0 1 3.999-3V8Zm-1.75 6a.874.874 0 0 0 1.732.176l.018-.176v-1l-.018-.176a.875.875 0 0 0-1.731.175V14Z"/>
</svg>
